svg/video_marker_outline.svg

<svg xmlns="http://www.w3.org/2000/svg" viewBox="0 0 24 24"><path d="M5.5 16.8c-.7 0-1.2-.6-1.2-1.2 0-.7.6-1.2 1.2-1.2s1.2.6 1.2 1.2c.1.6-.5 1.2-1.2 1.2m0-4.8C3.6 12 2 13.6 2 15.5 2 18.1 5.5 22 5.5 22S9 18.1 9 15.5C9 13.6 7.4 12 5.5 12M4 6c-.6 0-1 .4-1 1v3.6c.6-.3 1.3-.5 2-.6V8h10v8h-4c-.1.7-.2 1.4-.5 2H16c.6 0 1-.4 1-1v-3.5l4 4v-11l-4 4V7c0-.6-.4-1-1-1z"/></svg>

<svg xmlns="http://www.w3.org/2000/svg" id="mdi-video-marker-outline" viewBox="0 0 24 24"><path d="M5.5 16.8C4.8 16.8 4.3 16.2 4.3 15.6C4.3 14.9 4.9 14.4 5.5 14.4S6.7 15 6.7 15.6C6.8 16.2 6.2 16.8 5.5 16.8M5.5 12C3.6 12 2 13.6 2 15.5C2 18.1 5.5 22 5.5 22S9 18.1 9 15.5C9 13.6 7.4 12 5.5 12M4 6C3.4 6 3 6.4 3 7V10.6C3.6 10.3 4.3 10.1 5 10V8H15V16H11C10.9 16.7 10.8 17.4 10.5 18H16C16.6 18 17 17.6 17 17V13.5L21 17.5V6.5L17 10.5V7C17 6.4 16.6 6 16 6H4Z" /></svg>
